dist/svg/task-arrow-o.svg

<!-- Generated by Trend Micro Style Portal -->
<svg version="1.1" xmlns="http://www.w3.org/2000/svg" width="16" height="16" viewBox="0 0 16 16">
  <title>task-arrow-o</title>
  <path fill="rgb(34,34,34)" d="M12 16v-3h-4v-2h4v-3l4 4zM2 15h9v1h-9c-0.552 0-1-0.448-1-1v0-13c0-0.552 0.448-1 1-1v0h2v-1h8v1h2c0.552 0 1 0.448 1 1v0 6h-1v-6h-2v1h-8v-1h-2v13zM5 1v1h6v-1h-6z"></path>
</svg>

<svg width="16" height="16" viewBox="0 0 16 16" fill="rgb(34, 34, 34)" xmlns="http://www.w3.org/2000/svg"><title>task-arrow-o</title><path d="M12 16V13H8V11H12V8L16 12L12 16ZM2 15H11V16H2C1.448 16 1 15.552 1 15V2C1 1.448 1.448 1 2 1H4V0H12V1H14C14.552 1 15 1.448 15 2V8H14V2H12V3H4V2H2V15ZM5 1V2H11V1H5Z" fill="rgb(34, 34, 34)" fill-opacity="1.00"/></svg>
